common/assets/images/logo-mycrypto.svg

<svg height="242" viewBox="0 0 1000 242" width="1000" xmlns="http://www.w3.org/2000/svg">
  <g fill="none">
    <circle cx="120.18" cy="121" fill="#007896" r="120.18"/>
    <g fill="#fff">
      <g transform="translate(39 51)">
        <path d="m93.7 100.26c-3.2391479 3.293832-7.665324 5.148954-12.285 5.148954s-9.0458521-1.855122-12.285-5.148954l-15.66-15.83c-2.0154237-2.0503398-4.769965-3.2051896-7.645-3.2051896s-5.6295763 1.1548498-7.645 3.2051896c-6.7837223 6.9022169-6.7837223 17.967783 0 24.87l31 31.29c3.2391479 3.293832 7.665324 5.148954 12.285 5.148954s9.0458521-1.855122 12.285-5.148954l30.92-31.33c6.783722-6.902217 6.783722-17.9677831 0-24.87-2.015424-2.0503398-4.769965-3.2051896-7.645-3.2051896s-5.629576 1.1548498-7.645 3.2051896z"/>
        <path d="m34.94 45.16c3.0890939-3.2097721 7.338052-5.0441565 11.7925922-5.0911652 4.4545402-.0470086 8.7412641 1.6972989 11.8974078 4.8411652l14.94 15.09c1.9619997 1.9549457 4.6268754 3.0401122 7.3964349 3.0119089 2.7695596-.0282032 5.4117838-1.1674135 7.3335651-3.1619089 6.6182507-6.5962257 6.7162179-17.2835583.22-24l-29.52-29.85c-3.1561437-3.14386628-7.4428676-4.88817383-11.8974078-4.84116517-4.4545402.04700865-8.7034983 1.88139305-11.7925922 5.09116517l-30.09 30.49c-6.61825067 6.5962257-6.71621789 17.2835583-.22 24 1.96199966 1.9549457 4.62687538 3.0401122 7.3964349 3.0119089 2.7695596-.0282032 5.4117838-1.1674135 7.3335651-3.1619089z"/>
        <path d="m103.8 44.48c3.089094-3.2097721 7.338052-5.0441565 11.792592-5.0911652 4.45454-.0470086 8.741264 1.6972989 11.897408 4.8411652l14.94 15.11c1.962 1.9549457 4.626875 3.0401122 7.396435 3.0119089 2.769559-.0282032 5.411784-1.1674135 7.333565-3.1619089 6.618251-6.5962257 6.716218-17.2835583.22-24l-29.54-29.87c-3.156144-3.14386628-7.442868-4.88817383-11.897408-4.84116517-4.45454.04700865-8.703498 1.88139305-11.792592 5.09116517l-30.09 30.49c-6.6182507 6.5962257-6.7162179 17.2835583-.22 24 1.9619997 1.9549457 4.6268754 3.0401122 7.3964349 3.0119089 2.7695596-.0282032 5.4117838-1.1674135 7.3335651-3.1619089z"/>
      </g>
      <g transform="translate(313 48)">
        <path d="m90.57 34.35-33.31 42.87c-.1992153.2566413-.5051209.4077513-.83.41h-4.07c-.3231775.0001653-.6287763-.1471112-.83-.4l-33.31-42.53c-.2793499-.3517115-.750038-.489183-1.1747733-.34311s-.7113001.5439753-.7152267.99311v79.76c0 .585422-.4745782 1.06-1.06 1.06h-13.56c-.58542183 0-1.06-.474578-1.06-1.06l.19-111.23c.00548621-.58151285.47846128-1.05002588 1.06-1.05h9.76c.3248791.00224872.6307847.15335873.83.41l41.16 52.92c.2008989.2569024.5088724.407026.835.407026s.6341011-.1501236.835-.407026l41-52.92c.2013729-.25940678.5116066-.41083035.84-.41h9.76c.585422 0 1.06.47457817 1.06 1.06v111.22c0 .585422-.474578 1.06-1.06 1.06h-13.4c-.5854218 0-1.06-.474578-1.06-1.06v-80.11c-.0039266-.4491347-.2904914-.847037-.7152267-.99311s-.8954234-.0086015-1.1747733.34311z"/>
        <path d="m153.09 145.63h-13.76c-.36128.021077-.705756-.154686-.900719-.459574-.194963-.304889-.209986-.691322-.039281-1.010426l14.8-32.11c.129561-.272028.129561-.587972 0-.86l-33.14-72.91c-.165566-.3183589-.147862-.7010226.046391-1.0027348s.535272-.4762137.893609-.4572652h14.7c.437612-.0290354.843076.2304613 1 .64l22.59 55.08c.861442 1.7085788 1.374718 3.5713296 1.51 5.48h.76c.093757-1.859835.471459-3.6943852 1.12-5.44v-.08l22.58-55c.156924-.4095387.562388-.6690354 1-.64h13.59c.357183-.0206856.698204.1510305.894277.450301.196074.2992705.217323.680492.055723.999699l-46.79 106.69c-.148875.374023-.50751.622309-.91.63z"/>
        <path d="m308.69 103.73c.328865.40929.285194 1.003215-.1 1.36l-.87.87c-1.408938 1.251002-2.891597 2.416426-4.44 3.49-2.343252 1.708663-4.84073 3.195098-7.46 4.44-3.396099 1.505363-6.942728 2.645112-10.58 3.4-4.525329 1.019874-9.151199 1.526405-13.79 1.51-16.746667 0-30.413333-5.666667-41-17-10.586667-11.3333333-15.876667-25.3766667-15.87-42.13 0-16.8733333 5.256667-30.9766667 15.77-42.31 10.513333-11.33333333 24.21-17 41.09-17 7.094188-.06704954 14.140594 1.16666466 20.79 3.64 6.3 2.39333333 10.706667 4.78666667 13.22 7.18l3.1 2.95c.403703.3533365.456655.9622846.12 1.38l-7.73 10.31c-.171822.2580963-.453647.4218906-.762958.4434249-.30931.0215342-.611113-.1016278-.817042-.3334249l-.43-.39c-.566667-.5066667-1.793333-1.42-3.68-2.74-1.878175-1.3152332-3.835175-2.5141464-5.86-3.59-2.494193-1.245462-5.125365-2.1952346-7.84-2.83-3.242228-.823179-6.57491-1.2364047-9.92-1.23-11.966667 0-21.79 4.2833333-29.47 12.85s-11.52 19.1466667-11.52 31.74c0 12.4666667 3.84 22.9833333 11.52 31.55s17.503333 12.85 29.47 12.85c5.179748.020185 10.313214-.975252 15.11-2.93 4.76-1.94 8.21-3.85 10.35-5.73l.07-.06 2.14-2.14c.205994-.2279074.505311-.3484854.811765-.3270141.306455.0214713.586034.1826089.758235.4370141z"/><path d="m365.76 48.25c0 .5522847-.447715 1-1 1h-7.34c-5.467401-.0846593-10.715891 2.1454948-14.45 6.14-3.998074 4.1121362-6.162285 9.6669448-6 15.4v44.29c0 .552285-.447715 1-1 1h-13.44c-.552285 0-1-.447715-1-1v-77.21c0-.5522847.447715-1 1-1h9.59c.552285 0 1 .4477153 1 1l.41 12.4h.94c1.81808-4.1948671 4.929502-7.6987208 8.88-10 4.251016-2.4533038 9.092982-3.6949223 14-3.59h7.34c.552285 0 1 .4477153 1 1z"/><path d="m406.77 145.63h-13.77c-.36601.02725-.717536-.14819-.915795-.457057s-.211389-.701522-.034205-1.022943l14.8-32.09c.132759-.274806.132759-.595194 0-.87l-33.13-72.9c-.171883-.3207309-.155977-.7095144.041532-1.0151326.197508-.3056182.54544-.4798269.908468-.4548674h14.68c.440204-.0275762.84649.2365095 1 .65l22.59 55.08c1 2.27 2.41 4.09 2.41 5.48h-1c0-1.39 1.27-3.21 2-5.48l22.59-55.08c.15351-.4134905.559796-.6775762 1-.65h13.57c.368713-.0429055.730854.1219568.940616.4282085.209761.3062518.232624.7034962.059384 1.0317915l-46.78 106.72c-.155531.391103-.539306.642955-.96.63z"/><path d="m477.66 106.15v38.44c0 .552285-.447715 1-1 1h-13.46c-.552285 0-1-.447715-1-1v-106.73c0-.5522847.447715-1 1-1h10.3c.552285 0 1 .4477153 1 1l.09 10.49h.77c.347077.0063277.672605-.1677923.86-.46l.64-1c.909596-1.1510472 1.913031-2.2247226 3-3.21 1.660279-1.5931811 3.499149-2.9891116 5.48-4.16 2.587997-1.4245159 5.35153-2.5037057 8.22-3.21 3.603565-.9637959 7.319835-1.4413618 11.05-1.42 10.06076-.2250425 19.719386 3.9487985 26.45 11.43 7.053333 7.62 10.58 17.6633333 10.58 30.13 0 12.2133333-3.493333 22.1933333-10.48 29.94-6.513774 7.538522-16.038685 11.795425-26 11.62-3.656256.027552-7.302521-.385422-10.86-1.23-2.754693-.581973-5.400474-1.594389-7.84-3-1.687818-1.050614-3.29857-2.220247-4.82-3.5-1.014517-.815141-1.924711-1.752204-2.71-2.79l-.06-.09-.73-1.27zm6.23-8.78c4.803432 5.441117 11.870596 8.329372 19.11 7.81 5.354512-.232207 10.442814-2.39971 14.32-6.1 5.786667-5.5866667 8.68-13.1166667 8.68-22.59 0-8.3133333-2.296667-15.1766667-6.89-20.59-4.259076-5.2565131-10.705906-8.252979-17.47-8.12-6.783848-.1204747-13.277916 2.7462761-17.76 7.84-4.786667 5.2266667-7.18 12.1833333-7.18 20.87s2.396667 15.6466667 7.19 20.88z"/><path d="m560.18 35.77v-22.07c0-.579899.470101-1.05 1.05-1.05h13.38c.579899 0 1.05.470101 1.05 1.05v22.07c0 .579899.470101 1.05 1.05 1.05h20.56c.579899 0 1.05.470101 1.05 1.05v10.17c0 .579899-.470101 1.05-1.05 1.05h-20.56c-.579899 0-1.05.470101-1.05 1.05v42.77c0 7.933333 3.666667 11.9 11 11.9 1.766232-.020038 3.519318-.3066 5.2-.85 1.485128-.418935 2.912658-1.020177 4.25-1.79l.51-.26c.259745-.130851.562128-.148103.835071-.047645.272942.100458.49199.309626.604929.577645l4 9.22c.208775.434052.078473.95526-.31 1.24-.677164.497755-1.385256.952003-2.12 1.36-1.626297.851766-3.330829 1.544964-5.09 2.07-3.721295 1.219199-7.62574 1.784227-11.54 1.67-7.506667-.233333-13.133333-2.43-16.88-6.59-4-4.406667-6-10.513333-6-18.32v-43c0-.579899-.470101-1.05-1.05-1.05h-12.38c-.278477 0-.545549-.1106247-.742462-.3075379s-.307538-.4639848-.307538-.7424621v-10.11c0-.579899.470101-1.05 1.05-1.05h12.44c.280219.0000127.548817-.1119836.74602-.311065.197203-.1990813.306649-.4687291.30398-.748935z"/><path d="m675.29 106.72c-7.806667 7.553333-17.376667 11.33-28.71 11.33-11.46 0-21.03-3.776667-28.71-11.33-7.68-7.5533333-11.52-17.5033333-11.52-29.85 0-12.4666667 3.873333-22.5733333 11.62-30.32s17.286667-11.62 28.62-11.62c10.777065-.2321135 21.169568 4.0066958 28.71 11.71 7.8 7.8133333 11.7 17.89 11.7 30.23s-3.903333 22.29-11.71 29.85zm-11-9c4.786667-5.2266667 7.18-12.2466667 7.18-21.06 0-8.6666667-2.393333-15.72-7.18-21.16-4.399073-5.2378842-10.920603-8.2195748-17.76-8.12-6.839435-.1001208-13.373318 2.8282301-17.85 8-4.846667 5.3333333-7.27 12.4166667-7.27 21.25s2.393333 15.8533333 7.18 21.06c4.590499 4.996412 11.064956 7.840149 17.85 7.840149s13.259501-2.843737 17.85-7.840149z"/></g></g></g></svg>

<?xml version="1.0" encoding="UTF-8"?>
<svg width="1000px" height="242px" viewBox="0 0 1000 242" version="1.1" xmlns="http://www.w3.org/2000/svg" xmlns:xlink="http://www.w3.org/1999/xlink">
    <!-- Generator: Sketch 48.2 (47327) - http://www.bohemiancoding.com/sketch -->
    <title>Artboard</title>
    <desc>Created with Sketch.</desc>
    <defs></defs>
    <g id="Page-1" stroke="none" stroke-width="1" fill="none" fill-rule="evenodd">
        <g id="Artboard" fill-rule="nonzero">
            <g id="logo-mycrypto">
                <g id="Group">
                    <circle id="Oval" fill="#007896" cx="120.18" cy="121" r="120.18"></circle>
                    <g transform="translate(39.000000, 51.000000)" fill="#FFFFFF" id="Shape">
                        <path d="M93.7,100.26 C90.4608521,103.553832 86.034676,105.408954 81.415,105.408954 C76.795324,105.408954 72.3691479,103.553832 69.13,100.26 L53.47,84.43 C51.4545763,82.3796602 48.700035,81.2248104 45.825,81.2248104 C42.949965,81.2248104 40.1954237,82.3796602 38.18,84.43 C31.3962777,91.3322169 31.3962777,102.397783 38.18,109.3 L69.18,140.59 C72.4191479,143.883832 76.845324,145.738954 81.465,145.738954 C86.084676,145.738954 90.5108521,143.883832 93.75,140.59 L124.67,109.26 C131.453722,102.357783 131.453722,91.2922169 124.67,84.39 C122.654576,82.3396602 119.900035,81.1848104 117.025,81.1848104 C114.149965,81.1848104 111.395424,82.3396602 109.38,84.39 L93.7,100.26 Z"></path>
                        <g>
                            <path d="M34.94,45.16 C38.0290939,41.9502279 42.278052,40.1158435 46.7325922,40.0688348 C51.1871324,40.0218262 55.4738563,41.7661337 58.63,44.91 L73.57,60 C75.5319997,61.9549457 78.1968754,63.0401122 80.9664349,63.0119089 C83.7359945,62.9837057 86.3782187,61.8444954 88.3,59.85 C94.9182507,53.2537743 95.0162179,42.5664417 88.52,35.85 L59,6 C55.8438563,2.85613372 51.5571324,1.11182617 47.1025922,1.15883483 C42.648052,1.20584348 38.3990939,3.04022788 35.31,6.25 L5.22,36.74 C-1.39825067,43.3362257 -1.49621789,54.0235583 5,60.74 C6.96199966,62.6949457 9.62687538,63.7801122 12.3964349,63.7519089 C15.1659945,63.7237057 17.8082187,62.5844954 19.73,60.59 L34.94,45.16 Z"></path>
                            <path d="M103.8,44.48 C106.889094,41.2702279 111.138052,39.4358435 115.592592,39.3888348 C120.047132,39.3418262 124.333856,41.0861337 127.49,44.23 L142.43,59.34 C144.392,61.2949457 147.056875,62.3801122 149.826435,62.3519089 C152.595994,62.3237057 155.238219,61.1844954 157.16,59.19 C163.778251,52.5937743 163.876218,41.9064417 157.38,35.19 L127.84,5.32 C124.683856,2.17613372 120.397132,0.431826171 115.942592,0.478834826 C111.488052,0.525843482 107.239094,2.36022788 104.15,5.57 L74.06,36.06 C67.4417493,42.6562257 67.3437821,53.3435583 73.84,60.06 C75.8019997,62.0149457 78.4668754,63.1001122 81.2364349,63.0719089 C84.0059945,63.0437057 86.6482187,61.9044954 88.57,59.91 L103.8,44.48 Z"></path>
                        </g>
                    </g>
                </g>
                <g id="Group" transform="translate(313.000000, 48.000000)" fill="#FFFFFF">
                    <path d="M90.57,34.35 L57.26,77.22 C57.0607847,77.4766413 56.7548791,77.6277513 56.43,77.63 L52.36,77.63 C52.0368225,77.6301653 51.7312237,77.4828888 51.53,77.23 L18.22,34.7 C17.9406501,34.3482885 17.469962,34.210817 17.0452267,34.35689 C16.6204914,34.502963 16.3339266,34.9008653 16.33,35.35 L16.33,115.11 C16.33,115.695422 15.8554218,116.17 15.27,116.17 L1.71,116.17 C1.12457817,116.17 0.65,115.695422 0.65,115.11 L0.84,3.88 C0.845486214,3.29848715 1.31846128,2.82997412 1.9,2.83 L11.66,2.83 C11.9848791,2.83224872 12.2907847,2.98335873 12.49,3.24 L53.65,56.16 C53.8508989,56.4169024 54.1588724,56.567026 54.485,56.567026 C54.8111276,56.567026 55.1191011,56.4169024 55.32,56.16 L96.32,3.24 C96.5213729,2.98059322 96.8316066,2.82916965 97.16,2.83 L106.92,2.83 C107.505422,2.83 107.98,3.30457817 107.98,3.89 L107.98,115.11 C107.98,115.695422 107.505422,116.17 106.92,116.17 L93.52,116.17 C92.9345782,116.17 92.46,115.695422 92.46,115.11 L92.46,35 C92.4560734,34.5508653 92.1695086,34.152963 91.7447733,34.00689 C91.320038,33.860817 90.8493499,33.9982885 90.57,34.35 Z" id="Shape"></path>
                    <path d="M153.09,145.63 L139.33,145.63 C138.96872,145.651077 138.624244,145.475314 138.429281,145.170426 C138.234318,144.865537 138.219295,144.479104 138.39,144.16 L153.19,112.05 C153.319561,111.777972 153.319561,111.462028 153.19,111.19 L120.05,38.28 C119.884434,37.9616411 119.902138,37.5789774 120.096391,37.2772652 C120.290644,36.975553 120.631663,36.8010515 120.99,36.82 L135.69,36.82 C136.127612,36.7909646 136.533076,37.0504613 136.69,37.46 L159.28,92.54 C160.141442,94.2485788 160.654718,96.1113296 160.79,98.02 L161.55,98.02 C161.643757,96.160165 162.021459,94.3256148 162.67,92.58 L162.67,92.5 L185.25,37.5 C185.406924,37.0904613 185.812388,36.8309646 186.25,36.86 L199.84,36.86 C200.197183,36.8393144 200.538204,37.0110305 200.734277,37.310301 C200.930351,37.6095715 200.9516,37.990793 200.79,38.31 L154,145 C153.851125,145.374023 153.49249,145.622309 153.09,145.63 Z" id="Shape"></path>
                    <path d="M308.69,103.73 C309.018865,104.13929 308.975194,104.733215 308.59,105.09 L307.72,105.96 C306.311062,107.211002 304.828403,108.376426 303.28,109.45 C300.936748,111.158663 298.43927,112.645098 295.82,113.89 C292.423901,115.395363 288.877272,116.535112 285.24,117.29 C280.714671,118.309874 276.088801,118.816405 271.45,118.8 C254.703333,118.8 241.036667,113.133333 230.45,101.8 C219.863333,90.4666667 214.573333,76.4233333 214.58,59.67 C214.58,42.7966667 219.836667,28.6933333 230.35,17.36 C240.863333,6.02666667 254.56,0.36 271.44,0.36 C278.534188,0.292950459 285.580594,1.52666466 292.23,4 C298.53,6.39333333 302.936667,8.78666667 305.45,11.18 L308.55,14.13 C308.953703,14.4833365 309.006655,15.0922846 308.67,15.51 L300.94,25.82 C300.768178,26.0780963 300.486353,26.2418906 300.177042,26.2634249 C299.867732,26.2849591 299.565929,26.1617971 299.36,25.93 L298.93,25.54 C298.363333,25.0333333 297.136667,24.12 295.25,22.8 C293.371825,21.4847668 291.414825,20.2858536 289.39,19.21 C286.895807,17.964538 284.264635,17.0147654 281.55,16.38 C278.307772,15.556821 274.97509,15.1435953 271.63,15.15 C259.663333,15.15 249.84,19.4333333 242.16,28 C234.48,36.5666667 230.64,47.1466667 230.64,59.74 C230.64,72.2066667 234.48,82.7233333 242.16,91.29 C249.84,99.8566667 259.663333,104.14 271.63,104.14 C276.809748,104.160185 281.943214,103.164748 286.74,101.21 C291.5,99.27 294.95,97.36 297.09,95.48 L297.16,95.42 L299.3,93.28 C299.505994,93.0520926 299.805311,92.9315146 300.111765,92.9529859 C300.41822,92.9744572 300.697799,93.1355948 300.87,93.39 L308.69,103.73 Z" id="Shape"></path>
                    <path d="M365.76,48.25 C365.76,48.8022847 365.312285,49.25 364.76,49.25 L357.42,49.25 C351.952599,49.1653407 346.704109,51.3954948 342.97,55.39 C338.971926,59.5021362 336.807715,65.0569448 336.97,70.79 L336.97,115.08 C336.97,115.632285 336.522285,116.08 335.97,116.08 L322.53,116.08 C321.977715,116.08 321.53,115.632285 321.53,115.08 L321.53,37.87 C321.53,37.3177153 321.977715,36.87 322.53,36.87 L332.12,36.87 C332.672285,36.87 333.12,37.3177153 333.12,37.87 L333.53,50.27 L334.47,50.27 C336.28808,46.0751329 339.399502,42.5712792 343.35,40.27 C347.601016,37.8166962 352.442982,36.5750777 357.35,36.68 L364.69,36.68 C365.242285,36.68 365.69,37.1277153 365.69,37.68 L365.76,48.25 Z" id="Shape"></path>
                    <path d="M406.77,145.63 L393,145.63 C392.63399,145.65725 392.282464,145.48181 392.084205,145.172943 C391.885946,144.864076 391.872816,144.471421 392.05,144.15 L406.85,112.06 C406.982759,111.785194 406.982759,111.464806 406.85,111.19 L373.72,38.29 C373.548117,37.9692691 373.564023,37.5804856 373.761532,37.2748674 C373.95904,36.9692492 374.306972,36.7950405 374.67,36.82 L389.35,36.82 C389.790204,36.7924238 390.19649,37.0565095 390.35,37.47 L412.94,92.55 C413.94,94.82 415.35,96.64 415.35,98.03 L414.35,98.03 C414.35,96.64 415.62,94.82 416.35,92.55 L438.94,37.47 C439.09351,37.0565095 439.499796,36.7924238 439.94,36.82 L453.51,36.82 C453.878713,36.7770945 454.240854,36.9419568 454.450616,37.2482085 C454.660377,37.5544603 454.68324,37.9517047 454.51,38.28 L407.73,145 C407.574469,145.391103 407.190694,145.642955 406.77,145.63 Z" id="Shape"></path>
                    <path d="M477.66,106.15 L477.66,144.59 C477.66,145.142285 477.212285,145.59 476.66,145.59 L463.2,145.59 C462.647715,145.59 462.2,145.142285 462.2,144.59 L462.2,37.86 C462.2,37.3077153 462.647715,36.86 463.2,36.86 L473.5,36.86 C474.052285,36.86 474.5,37.3077153 474.5,37.86 L474.59,48.35 L475.36,48.35 C475.707077,48.3563277 476.032605,48.1822077 476.22,47.89 L476.86,46.89 C477.769596,45.7389528 478.773031,44.6652774 479.86,43.68 C481.520279,42.0868189 483.359149,40.6908884 485.34,39.52 C487.927997,38.0954841 490.69153,37.0162943 493.56,36.31 C497.163565,35.3462041 500.879835,34.8686382 504.61,34.89 C514.67076,34.6649575 524.329386,38.8387985 531.06,46.32 C538.113333,53.94 541.64,63.9833333 541.64,76.45 C541.64,88.6633333 538.146667,98.6433333 531.16,106.39 C524.646226,113.928522 515.121315,118.185425 505.16,118.01 C501.503744,118.037552 497.857479,117.624578 494.3,116.78 C491.545307,116.198027 488.899526,115.185611 486.46,113.78 C484.772182,112.729386 483.16143,111.559753 481.64,110.28 C480.625483,109.464859 479.715289,108.527796 478.93,107.49 L478.87,107.4 L478.14,106.13 L477.66,106.15 Z M483.89,97.37 C488.693432,102.811117 495.760596,105.699372 503,105.18 C508.354512,104.947793 513.442814,102.78029 517.32,99.08 C523.106667,93.4933333 526,85.9633333 526,76.49 C526,68.1766667 523.703333,61.3133333 519.11,55.9 C514.850924,50.6434869 508.404094,47.647021 501.64,47.78 C494.856152,47.6595253 488.362084,50.5262761 483.88,55.62 C479.093333,60.8466667 476.7,67.8033333 476.7,76.49 C476.7,85.1766667 479.096667,92.1366667 483.89,97.37 Z" id="Shape"></path>
                    <path d="M560.18,35.77 L560.18,13.7 C560.18,13.120101 560.650101,12.65 561.23,12.65 L574.61,12.65 C575.189899,12.65 575.66,13.120101 575.66,13.7 L575.66,35.77 C575.66,36.349899 576.130101,36.82 576.71,36.82 L597.27,36.82 C597.849899,36.82 598.32,37.290101 598.32,37.87 L598.32,48.04 C598.32,48.619899 597.849899,49.09 597.27,49.09 L576.71,49.09 C576.130101,49.09 575.66,49.560101 575.66,50.14 L575.66,92.91 C575.66,100.843333 579.326667,104.81 586.66,104.81 C588.426232,104.789962 590.179318,104.5034 591.86,103.96 C593.345128,103.541065 594.772658,102.939823 596.11,102.17 L596.62,101.91 C596.879745,101.779149 597.182128,101.761897 597.455071,101.862355 C597.728013,101.962813 597.947061,102.171981 598.06,102.44 L602.06,111.66 C602.268775,112.094052 602.138473,112.61526 601.75,112.9 C601.072836,113.397755 600.364744,113.852003 599.63,114.26 C598.003703,115.111766 596.299171,115.804964 594.54,116.33 C590.818705,117.549199 586.91426,118.114227 583,118 C575.493333,117.766667 569.866667,115.57 566.12,111.41 C562.12,107.003333 560.12,100.896667 560.12,93.09 L560.12,50.09 C560.12,49.510101 559.649899,49.04 559.07,49.04 L546.69,49.04 C546.411523,49.04 546.144451,48.9293753 545.947538,48.7324621 C545.750625,48.5355489 545.64,48.2684773 545.64,47.99 L545.64,37.88 C545.64,37.300101 546.110101,36.83 546.69,36.83 L559.13,36.83 C559.410219,36.8300127 559.678817,36.7180164 559.87602,36.518935 C560.073223,36.3198537 560.182669,36.0502059 560.18,35.77 Z" id="Shape"></path>
                    <path d="M675.29,106.72 C667.483333,114.273333 657.913333,118.05 646.58,118.05 C635.12,118.05 625.55,114.273333 617.87,106.72 C610.19,99.1666667 606.35,89.2166667 606.35,76.87 C606.35,64.4033333 610.223333,54.2966667 617.97,46.55 C625.716667,38.8033333 635.256667,34.93 646.59,34.93 C657.367065,34.6978865 667.759568,38.9366958 675.3,46.64 C683.1,54.4533333 687,64.53 687,76.87 C687,89.21 683.096667,99.16 675.29,106.72 Z M664.29,97.72 C669.076667,92.4933333 671.47,85.4733333 671.47,76.66 C671.47,67.9933333 669.076667,60.94 664.29,55.5 C659.890927,50.2621158 653.369397,47.2804252 646.53,47.38 C639.690565,47.2798792 633.156682,50.2082301 628.68,55.38 C623.833333,60.7133333 621.41,67.7966667 621.41,76.63 C621.41,85.4633333 623.803333,92.4833333 628.59,97.69 C633.180499,102.686412 639.654956,105.530149 646.44,105.530149 C653.225044,105.530149 659.699501,102.686412 664.29,97.69 L664.29,97.72 Z" id="Shape"></path>
                </g>
            </g>
        </g>
    </g>
</svg>
